remix/Logos/gatsby-fill.svg

<svg viewBox="0 0 24 24" fill="currentColor" xmlns="http://www.w3.org/2000/svg"><path d="M12.001 2C6.50098 2 2.00098 6.5 2.00098 12C2.00098 17.5 6.50098 22 12.001 22C17.501 22 22.001 17.5 22.001 12C22.001 6.5 17.501 2 12.001 2ZM6.42956 17.5714C4.92956 16.0714 4.14385 14.0714 4.14385 12.1429L11.9297 19.8571C9.92973 19.7857 7.92973 19.0714 6.42956 17.5714ZM13.7151 19.6429L4.3581 10.2857C5.14385 6.78571 8.28681 4.14286 12.001 4.14286C14.6439 4.14286 16.9297 5.42857 18.3581 7.35712L17.2868 8.28571C16.0722 6.64288 14.1439 5.57143 12.001 5.57143C9.21514 5.57143 6.8581 7.35713 5.92956 9.85713L14.1439 18.0714C16.2151 17.3571 17.7868 15.5714 18.2868 13.4286H14.8581V12H19.8581C19.8581 15.7143 17.2151 18.8571 13.7151 19.6429Z"/></svg>

<svg viewBox="0 0 24 24" xmlns="http://www.w3.org/2000/svg"><path fill="none" d="M0 0h24v24H0Z"/><path d="M12 2C6.5 2 2 6.5 2 12c0 5.5 4.5 10 10 10s10-4.5 10-10 -4.5-10-10-10ZM6.429 17.57c-1.5-1.5-2.29-3.5-2.29-5.43l7.78 7.71c-2-.08-4-.79-5.5-2.29Zm7.285 2.07l-9.36-9.36c.78-3.5 3.92-6.143 7.64-6.143 2.64 0 4.92 1.28 6.35 3.21l-1.08.92c-1.22-1.65-3.15-2.72-5.29-2.72 -2.79 0-5.143 1.78-6.08 4.28l8.21 8.21c2.07-.72 3.64-2.5 4.14-4.65h-3.43v-1.43h5c0 3.71-2.65 6.85-6.15 7.64Z"/></svg>
